src/assets/filled/VideoHorizontal.svg

<svg width="24" height="24" viewBox="0 0 24 24"  xmlns="http://www.w3.org/2000/svg">
<path d="M11.25 7.86011H2V16.1901C2 16.2501 2 16.3101 2.01 16.3601H11.25V7.86011Z" />
<path d="M7.68994 6.36H11.2499V2H7.71994V6.24C7.71994 6.28 7.69994 6.32 7.68994 6.36Z" />
<path d="M6.21988 6.23991V2.15991C3.99988 2.61991 2.54988 4.09991 2.12988 6.35991H6.23988C6.22988 6.31991 6.21988 6.27991 6.21988 6.23991Z" />
<path d="M16.22 2H12.75V6.36H16.22V2Z" />
<path d="M17.71 6.3599H21.87C21.45 4.0799 19.98 2.5899 17.72 2.1499V6.3299C17.72 6.3399 17.71 6.3499 17.71 6.3599Z" />
<path d="M17.72 21.8501C19.91 21.4201 21.35 20.0201 21.82 17.8601H17.72V21.8501Z" />
<path d="M16.22 17.8601H12.75V22.0001H16.22V17.8601Z" />
<path d="M12.75 16.3601H21.99C22 16.3101 22 16.2501 22 16.1901V7.86011H12.75V16.3601Z" />
<path d="M11.25 17.8601H7.71997V22.0001H11.25V17.8601Z" />
<path d="M2.17993 17.8601C2.64993 20.0001 4.06993 21.4001 6.21993 21.8401V17.8601H2.17993Z" />
</svg>

<?xml version="1.0" encoding="UTF-8"?>
<svg width="24" height="24" viewBox="0 0 24 24" xmlns="http://www.w3.org/2000/svg">
 <path d="m11.25 7.8601h-9.25v8.33c0 0.06 0 0.12 0.01 0.17h9.24v-8.5z"/>
 <path d="m7.6899 6.36h3.56v-4.36h-3.53v4.24c0 0.04-0.02 0.08-0.03 0.12z"/>
 <path d="m6.2199 6.2399v-4.08c-2.22 0.46-3.67 1.94-4.09 4.2h4.11c-0.01-0.04-0.02-0.08-0.02-0.12z"/>
 <path d="M16.22 2H12.75V6.36H16.22V2Z"/>
 <path d="m17.71 6.3599h4.16c-0.42-2.28-1.89-3.77-4.15-4.21v4.18c0 0.01-0.01 0.02-0.01 0.03z"/>
 <path d="m17.72 21.85c2.19-0.43 3.63-1.83 4.1-3.99h-4.1v3.99z"/>
 <path d="m16.22 17.86h-3.47v4.14h3.47v-4.14z"/>
 <path d="m12.75 16.36h9.24c0.01-0.05 0.01-0.11 0.01-0.17v-8.33h-9.25v8.5z"/>
 <path d="m11.25 17.86h-3.53v4.14h3.53v-4.14z"/>
 <path d="m2.1799 17.86c0.47 2.14 1.89 3.54 4.04 3.98v-3.98h-4.04z"/>
</svg>
